svg/xmas-candle-bridge.svg

<?xml version="1.0" encoding="UTF-8"?>
<!DOCTYPE svg PUBLIC "-//W3C//DTD SVG 1.1//EN" "http://www.w3.org/Graphics/SVG/1.1/DTD/svg11.dtd">
<svg xmlns="http://www.w3.org/2000/svg" xmlns:xlink="http://www.w3.org/1999/xlink" version="1.1" width="24" height="24" viewBox="0 0 24 24">
<style>path{fill:#000}@media (prefers-color-scheme:dark){path{fill:#fff}}</style>
<path d="m12 2c-0.4155 0-0.75 0.3345-0.75 0.75v7l0.75-0.75 0.75 0.75v-7c0-0.4155-0.3345-0.75-0.75-0.75zm-3 3c-0.4155 0-0.75 0.3345-0.75 0.75v6.998l1.5-1.5v-5.498c0-0.4155-0.3345-0.75-0.75-0.75zm6 0c-0.4155 0-0.75 0.3345-0.75 0.75v5.5l1.5 1.5v-7c0-0.4155-0.3345-0.75-0.75-0.75zm-9 3c-0.4155 0-0.75 0.3345-0.75 0.75v7l1.5-1.5v-5.5c0-0.4155-0.3345-0.75-0.75-0.75zm12 0c-0.4155 0-0.75 0.3345-0.75 0.75v5.7559l1.5 1.5v-7.2559c0-0.4155-0.3345-0.75-0.75-0.75zm-15 3c-0.4155 0-0.75 0.3345-0.75 0.75v7l1.5-1.5v-5.5c0-0.4155-0.3345-0.75-0.75-0.75zm9 0l-2.1211 2.1211-8.8789 8.8789h4.2441l6.7559-6.7578 6.7559 6.7578h4.2441l-8.8789-8.8789-2.1211-2.1211zm9 0c-0.4155 0-0.75 0.3345-0.75 0.75v5.5l1.5 1.5v-7c0-0.4155-0.3345-0.75-0.75-0.75z"/>
</svg>

<svg xmlns="http://www.w3.org/2000/svg" width="24" height="24">
<style>@media (prefers-color-scheme:dark){path{fill:#fff}}</style>
<path d="M12 2a.748.748 0 0 0-.75.75v7L12 9l.75.75v-7A.748.748 0 0 0 12 2zM9 5a.748.748 0 0 0-.75.75v6.998l1.5-1.5V5.75A.748.748 0 0 0 9 5zm6 0a.748.748 0 0 0-.75.75v5.5l1.5 1.5v-7A.748.748 0 0 0 15 5zM6 8a.748.748 0 0 0-.75.75v7l1.5-1.5v-5.5A.748.748 0 0 0 6 8zm12 0a.748.748 0 0 0-.75.75v5.756l1.5 1.5V8.75A.748.748 0 0 0 18 8zM3 11a.748.748 0 0 0-.75.75v7l1.5-1.5v-5.5A.748.748 0 0 0 3 11zm9 0-2.121 2.121L1 22h4.244L12 15.242 18.756 22H23l-8.879-8.879L12 11zm9 0a.748.748 0 0 0-.75.75v5.5l1.5 1.5v-7A.748.748 0 0 0 21 11z"/>
</svg>
